X:204
T: Fang niu diao
N: C1696
O: China, Taiwan
S: IV, 622]
R: Shange, Fangmu shange]
M: 2/4
L: 1/16
K: C
C2CDE4 | G2EGA4
c2AcA2G2 | G3EG4
A2GAG2E2 | D2DED4
C2CDE4 | G3EE2G2 | A8
c3de4 | dedcA2G2 | E2G2c2A2 | G8

